X:0009
T:The Moon and Seven Stars.
M:6/8
L:1/8
Q:3/8=120
I: :: ::
%% ^F  G  A  B ^c  d  e ^f  g 
Z:Jack Campin * www.campin.me.uk * 2009
K:D
d2A AGF|GAB A3 |Bcd efg|fed cBA|
d2A AGF|GAB A3 |Bcd efg|Adc d3:|
e2A A2f|efg f3 |fgf e2d|cdB A3 |
BGB AFA|BGB AFA|Bcd efg|Adc d3:|

